tde/theme/icons/volume-high.svg

<svg xmlns="http://www.w3.org/2000/svg" width="240" height="240" viewBox="0 0 24 24"><path fill="#fff" d="M14 3.23v2.06c2.89.86 5 3.54 5 6.71s-2.11 5.84-5 6.7v2.07c4-.91 7-4.49 7-8.77 0-4.28-3-7.86-7-8.77M16.5 12c0-1.77-1-3.29-2.5-4.03V16c1.5-.71 2.5-2.24 2.5-4M3 9v6h4l5 5V4L7 9H3z"/></svg>

<?xml version="1.0" encoding="UTF-8"?><!DOCTYPE svg PUBLIC "-//W3C//DTD SVG 1.1//EN" "http://www.w3.org/Graphics/SVG/1.1/DTD/svg11.dtd"><svg xmlns="http://www.w3.org/2000/svg" xmlns:xlink="http://www.w3.org/1999/xlink" version="1.1" width="240" height="240" viewBox="0 0 24 24"><path fill="#ffffff" d="M14,3.23V5.29C16.89,6.15 19,8.83 19,12C19,15.17 16.89,17.84 14,18.7V20.77C18,19.86 21,16.28 21,12C21,7.72 18,4.14 14,3.23M16.5,12C16.5,10.23 15.5,8.71 14,7.97V16C15.5,15.29 16.5,13.76 16.5,12M3,9V15H7L12,20V4L7,9H3Z" /></svg>
